X:1
T:James Gibb editions
T:Vidi aquam - Ravanello
T:#
%%score { 1 | 2 } 3
L:1/8
Q:1/4=69
M:none
K:Bb
V:1 treble nm="Soprano I" snm="S"
V:2 treble 
V:3 treble nm="Alto" snm="A"
V:1
 x4 x4 x2 x || %1
w: |
"^Vidi aquam, op.66/2""^Oreste Ravanello\n (1871-1938)""^moderato"!p![Q:1/4=100] F4 F2 G2 B4"^," F2 F2 (B2 c4 B2- B2 A2)"^," B2 B2 | %2
w: e- gre- di- en- tem de tem\- * * * * plo, a|
 x8 | x8 | x8 |[M:4/4][Q:1/4=100][Q:1/4=100] A4 B2"^," A2 | G8 | A4 z4 |!f! f2 f2 d2 B2 | %9
w: |||la- te- re|dex-|tro,|Al- le- lu- ja,|
 B2 (cd) e4 |"^," d6!mf!"^meno"[Q:1/4=90] e2 | d4 d2 c2 |[Q:1/4=90][Q:1/4=90] B2 c2 e2 d2 | %13
w: Al- le\- * lu-|ja: et|o- mnes, ad|quos per- ve- nit|
 c2 B2 c4 |"^," c2 f4 c2 | d2 c2 B2 B2 | (e3 d c2 B2) | A4"^mosso"[Q:1/4=100] z4 | %18
w: a- qua i-|sta, sal- vi|fa- cti sunt, et|di\- * * *|cent,|
!f! f2 f2 d2"^," B2 | B2 (cd) e4 |"^," d2!ff!"^rall."[Q:1/4=98] d4[Q:1/4=96] d2 | %21
w: Al- le- lu- ja,|Al- le\- * lu-|ja, Al- le-|
[Q:1/4=94] (d4[Q:1/4=91] =e4) |[Q:1/4=90] !fermata!f8 ||[Q:1/4=69] x16 x2 || %24
w: lu\- *|ja.||
[Q:1/4=100] B3 B B2 B2 d3 d"^," d2 d2 | x8 |[M:4/4][Q:1/4=100][Q:1/4=100] f2 e2 d2 dd | %27
w: Quo- ni- am in sae- cu- lum mi-||se- ri- cor- di- a|
 (e3 d c2 B2) | !fermata!A8 ||[Q:1/4=69] z8 z4 z4 z6 x | %30
w: e\- * * *|ius.||
[M:3/4][Q:1/4=69]!f!"^allegro"[Q:1/4=108][Q:1/4=69] d4 e2 | (f3 e) d2 | c4 d2 | B3 B"^," B2 | %34
w: Si- cut|e\- * rat|in prin-|ci- pi- o,|
 c2 c2 d2 | (e4 d2) |[M:3/4]"^," c2 c2 c2 | e3 e e2 | d4 =e2 | f4 f2 | (g6 | f6- | f2 =ed e2) | %43
w: et nunc, et|sem\- *|per, et in|sae- cu- la|sae- cu-|lo- rum.|A\-|||
 !fermata!f6 |] %44
w: men.|
V:2
 x4 x4 x2 x ||!p! F4 F2 E2 x24 | D4"^," D2 D2 | (E4 F4 | E4)"^," D2 D2 |[M:4/4] F4 F2"^," F2 | %6
w: |e- gre- di-|en- tem de|tem\- *|* plo, a|la- te- re|
 (F2 =ED E4) | F4!f! c2 c2 | A2 F2 (BA) (GF) | (G2 AB c4- | c2 BA)"^," B2!mf! G2 | F4 F2 A2 | %12
w: dex\- * * *|tro, Al- le-|lu- ja, Al\- * le\- *|lu\- * * *|* * * ja: et|o- mnes, ad|
 G2 A2 G2 B2 | A2 B2 (B2 AG) |"^," A2 A4 A2 | F2 A2 G2 G2 | G8 | F4!f! c2 c2 | %18
w: quos per- ve- nit|a- qua i\- * *|sta, sal- vi|fa- cti sunt, et|di-|cent, Al- le-|
 A2"^," F2 (BA) (GF) | (G2 AB c4) |"^," B2!ff! B4 B2 | B8 | A8 || x16 x2 || G3 G G2 G2 x8 | %25
w: lu- ja, Al\- * le\- *|lu\- * * *|ja, Al- le-|lu-|ja.||Quo- ni- am in|
 F3 F"^," F2 F2 |[M:4/4] F2 (GA) B2 BA | G8 | !fermata!F8 || x16 x6 x |[M:3/4]!f! (B2 A2) G2 | %31
w: sae- cu- lum mi-|se- ri\- * cor- di- a|e-|ius.||Si\- * cut|
 (F2 GA) B2 | A4 A2 | G3 G"^," G2 | A2 A2 B2 | (B2 A2 B2) |[M:3/4]"^," A2 A2 A2 | G3 G G2 | B4 B2 | %39
w: e\- * * rat|in prin-|ci- pi- o,|et nunc, et|sem\- * *|per, et in|sae- cu- la|sae- cu-|
 A4 B2 | (B2 e4- | e2 d2 c2 | B6) | !fermata!A6 |] %44
w: lo- rum.|A\- *|||men.|
V:3
!p! (FG) (GE GF) (FGF) !fermata!F2 ||[M:4/4]!p! (F3 E) D2 C2 x24 | B,4"^," B,2 B,2 | (E4 D4 | %4
w: Vi\- * di * * * a\- * * quam|e\- * gre- di-|en- tem de|tem\- *|
 C4)"^," B,2 B,2 |[M:4/4] C4 D2"^," C2 | (B,4 C4) | F4 z4 | z8 |!f! G2 G2 (E2 C2) |"^," G6!mf! E2 | %11
w: * plo, a|la- te- re|dex\- *|tro,||Al- le- lu\- *|ja: et|
 B,4 B,2 F2 | G2 F2 C2 B,2 | F2 G2 F4 |"^," F2 F4 F2 | D2 F2 G2 G2 | (C3 D E2 =E2) | F4 z4 | z8 | %19
w: o- mnes, ad|quos per- ve- nit|a- qua i-|sta, sal- vi|fa- cti sunt, et|di\- * * *|cent,||
!f! G2 G2 (E2 C2) |"^," G2!ff! G4 G2 | G8 | F8 || FG (FB) BBBB (BA) (Bc)cc (Bc) !fermata!B2 || %24
w: Al- le- lu\- *|ja, Al- le-|lu-|ja.|Con- fi- te\- * mi- ni Do- mi- no * quo\- * ni- am bo\- * nus:|
[M:4/4] G3 G G2 E2 x8 | B,3 B,"^," B,2 B,2 | D2 C2 B,2 B,B, | (C3 D E2 =E2) | !fermata!F8 || %29
w: Quo- ni- am in|sae- cu- lum mi-|se- ri- cor- di- a|e\- * * *|ius.|
 FG (FB) B8 B (BA) (Bc)cc (Bc) !fermata!B2 |[M:3/4]!f! B,4 E2 | (D3 C) B,2 | F4 F2 | G3 G"^," G2 | %34
w: Glo- ri- a * Patri,~et~Filio, et Spi\- * ri\- * tu- i San\- * cto.|Si- cut|e\- * rat|in prin-|ci- pi- o,|
 F2 E2 D2 | (C4 B,2) |[M:3/4]"^," F2 F2 F2 | C3 C C2 | G4 G2 | D4 D2 | (E4 G2 | B4 A2 | G6) | %43
w: et nunc, et|sem\- *|per, et in|sae- cu- la|sae- cu-|lo- rum.|A\- *|||
 !fermata!F6 |] %44
w: men.|

